X: 1
P: Pullin' Bracken
C: From Matt Petrie, Barbara McOwen
C: arr. T. Traub 12-29-97, mods. 2-24-2004
L: 1/4
M: 4/4
R: Reel
K: Am
"Am"A A a2|"G"g e g2|"C"e>d "D"B A|"G"G A "Em"B/A/ G|"Am"A A a2|"C"g e g2 |"G"e>d "E"B e|"Am"A2 A2||
"Am"e>d "D7"B A|"G"G A B/A/ G|"C"e>d "D7"B A|"G"B2 g2|"Am"e>d "D7"B A|"G"G A "Em"B/A/ G|"C"e>d "E7"B e|"Am"A2 A2|]
